src/v2/sources/logo.svg

<?xml version="1.0" encoding="UTF-8" standalone="no"?>
<svg xmlns="http://www.w3.org/2000/svg" viewBox="0 0 529.167 118.731">
  <path fill="#00aa00" d="M37.294922,88.730469L37.308592,31.025391H25.308591999999997L25.326171999999996,77.84375A42.866245,43.226017,0,0,0,37.294922,88.730469Z"/>
  <path fill="#00aa00" d="M56.019531,94.75L56.029331,45.037109H44.029331L44.048861,92.017578A42.866245,43.226017,0,0,0,56.019531,94.75Z"/>
  <path fill="#00aa00" d="M74.748047,92.001953L74.75,35.832031H62.75L62.752,94.748047A42.866245,43.226017,0,0,0,74.74809400000001,92.001953Z"/>
  <path fill="#00aa00" d="M81.46875,24.560547V88.726562C86.121007,85.881113,90.19351,82.168533,93.46875,77.787109L93.469,24.560547Z"/>
  <path fill="#700000" d="
    M 69.076,0.825
    L 69.07199999999999,0.829
    A 59.362,59.362,0,0,1,69.115,0.837
    A 45.694,48.77,0,0,0,69.07499999999999,0.826
    Z
    M 69.115,0.837
    A 45.694,48.77,0,0,1,105.056,48.448
    A 45.694,48.77,0,0,1,65.803,96.67699999999999
    A 45.694,48.77,0,0,1,62.178999999999995,97.11699999999999
    A 37.855,37.855,0,0,1,59.370999999999995,97.22599999999998
    A 37.855,37.855,0,0,1,59.26,97.218
    A 37.855,37.855,0,0,1,55.426,97.015
    A 45.694,48.77,0,0,1,13.664,48.455
    A 45.694,48.77,0,0,1,49.35,0.926
    A 59.362,59.362,0,0,0,0,59.372
    A 59.362,59.362,0,0,0,59.367,118.73
    A 59.362,59.362,0,0,0,118.724,59.372
    A 59.362,59.362,0,0,0,69.115,0.837
    Z
  "/>
  <path fill="#700000" d="
    M 132.12,0
    V 118.73
    H 154.467
    V 75.04
    H 175.81
    L 198.822,118.73
    H 224.67000000000002
    L 198.156,70.87
    C 199.601,70.315,201.603,69.42500000000001,204.16,68.202
    C 206.828,66.98,209.439,65.089,211.996,62.532
    C 214.553,59.976,216.77800000000002,56.584999999999994,218.668,52.361
    C 220.668,48.025,221.668,42.522999999999996,221.668,35.852999999999994
    C 221.668,30.627999999999993,220.72400000000002,25.846999999999994,218.834,21.510999999999996
    C 217.055,17.063999999999997,214.442,13.283999999999995,210.996,10.170999999999996
    C 207.661,6.946999999999996,203.493,4.445999999999996,198.49,2.6669999999999963
    C 193.598,0.888,187.983,0,181.646,0
    Z
    M 154.467,19.677
    H 175.477C183.258,19.677,188.983,21.289,192.65200000000002,24.512999999999998
    C 196.43200000000002,27.737,198.322,32.073,198.322,37.521
    C 198.322,43.191,196.489,47.581,192.82,50.695
    C 189.15099999999998,53.807,184.482,55.363,178.81199999999998,55.363
    H 154.46699999999998
    Z
  "/>
  <path fill="#700000" d="
    M 238.061,0.01
    V 118.73700000000001
    H 260.404V69.714H263.019
    V 69.682H302.964
    V 49.002L260.404,49.034
    V 20.69H316.413
    V 0.01
    Z
  "/>
  <path fill="#700000" d="
    M 329.815,0.012
    V 118.739H408.135
    V 98.059H352.157
    V 20.692H408.13599999999997
    V 0.012M334.559,49.022
    V 69.72H354.769
    V 69.688H394.69
    V 49.015
    Z
  "/>
  <path fill="#700000" d="
    M 469.808,0.005
    A 59.362,59.362,0,0,0,410.44599999999997,59.367000000000004
    A 59.362,59.362,0,0,0,469.808,118.72900000000001
    A 59.362,59.362,0,0,0,529.17,59.36700000000001
    A 59.362,59.362,0,0,0,469.808,0.005
    Z
    M 469.808,21.519
    A 37.855,37.855,0,0,1,507.663,59.373999999999995
    A 37.855,37.855,0,0,1,469.808,97.22899999999998
    A 37.855,37.855,0,0,1,431.953,59.37399999999999
    A 37.855,37.855,0,0,1,469.808,21.51899999999999
    Z
  "/>
</svg>

<?xml version="1.0" encoding="UTF-8" standalone="no"?>
<svg
   viewBox="0 0 529.167 118.731"
   version="1.1"
   id="svg9"
   sodipodi:docname="logo.svg"
   inkscape:version="1.3.2 (091e20e, 2023-11-25)"
   xmlns:inkscape="http://www.inkscape.org/namespaces/inkscape"
   xmlns:sodipodi="http://sodipodi.sourceforge.net/DTD/sodipodi-0.dtd"
   xmlns:xlink="http://www.w3.org/1999/xlink"
   xmlns="http://www.w3.org/2000/svg"
   xmlns:svg="http://www.w3.org/2000/svg">
  <defs
     id="defs9">
    <clipPath
       clipPathUnits="userSpaceOnUse"
       id="clipPath22">
      <use
         x="0"
         y="0"
         xlink:href="#g21"
         id="use22" />
    </clipPath>
  </defs>
  <sodipodi:namedview
     id="namedview9"
     pagecolor="#ffffff"
     bordercolor="#000000"
     borderopacity="0.25"
     inkscape:showpageshadow="2"
     inkscape:pageopacity="0.0"
     inkscape:pagecheckerboard="0"
     inkscape:deskcolor="#d1d1d1"
     inkscape:zoom="2.1430155"
     inkscape:cx="292.11175"
     inkscape:cy="-4.6663219"
     inkscape:window-width="1408"
     inkscape:window-height="1179"
     inkscape:window-x="441"
     inkscape:window-y="104"
     inkscape:window-maximized="0"
     inkscape:current-layer="svg9" />
  <path
     d="m 37.294922,88.730469 0.01367,-57.705078 h -12 l 0.01758,46.818359 a 42.866245,43.226017 0 0 0 11.96875,10.886719 z"
     style="fill:#00aa00;stroke-width:1.53689"
     id="path21" />
  <path
     d="m 56.019531,94.75 0.0098,-49.712891 h -12 l 0.01953,46.980469 A 42.866245,43.226017 0 0 0 56.019531,94.75 Z"
     style="fill:#00aa00;stroke-width:1.47394"
     id="path19" />
  <path
     d="M 74.748047,92.001953 74.75,35.832031 h -12 l 0.002,58.916016 a 42.866245,43.226017 0 0 0 11.996094,-2.746094 z"
     style="fill:#00aa00;stroke-width:1.44491"
     id="path17" />
  <g
     id="g22"
     clip-path="url(#clipPath22)">
    <g
       inkscape:label="Clip"
       id="g21">
      <path
         d="M 92.669922,24.560547 H 81.46875 v 64.166015 a 42.866245,43.226017 0 0 0 12,-10.939453 v -52.21289 a 42.866245,43.226017 0 0 0 -0.798828,-1.013672 z"
         style="fill:#00aa00;stroke-width:1.27622"
         id="path13" />
    </g>
  </g>
  <path
     d="m 92.669922,24.560547 a 42.866245,43.226017 0 0 1 0.798828,1.013672 v -1.013672 z"
     style="fill:#00aa00;stroke-width:1.27622"
     id="path12" />
  <path
     fill="#6c0000"
     d="m 69.076,0.825 -0.004,0.004 a 59.362,59.362 0 0 1 0.043,0.008 45.694,48.77 0 0 0 -0.04,-0.011 z m 0.039,0.012 a 45.694,48.77 0 0 1 35.941,47.611 45.694,48.77 0 0 1 -39.253,48.229 45.694,48.77 0 0 1 -3.624,0.44 37.855,37.855 0 0 1 -2.808,0.109 A 37.855,37.855 0 0 1 59.26,97.218 37.855,37.855 0 0 1 55.426,97.015 45.694,48.77 0 0 1 13.664,48.455 45.694,48.77 0 0 1 49.35,0.926 59.362,59.362 0 0 0 0,59.372 59.362,59.362 0 0 0 59.367,118.73 59.362,59.362 0 0 0 118.724,59.372 59.362,59.362 0 0 0 69.115,0.837 Z"
     id="path5"
     style="fill:#770000;fill-opacity:1" />
  <path
     fill="#6c0000"
     d="     M 132.12 0     v 118.73     h 22.347     V 75.04     h 21.343     l 23.012 43.69     h 25.848     l -26.514 -47.86     c   1.445  -.555,   3.447  -1.445,   6.004  -2.668         2.668 -1.222,   5.279  -3.113,   7.836  -5.67         2.557 -2.556,   4.782  -5.947,   6.672 -10.171         2     -4.336,   3      -9.838,   3     -16.508         0     -5.225,   -.944 -10.006,  -2.834 -14.342        -1.779 -4.447,  -4.392  -8.227,  -7.838 -11.34        -3.335 -3.224,  -7.503  -5.725, -12.506  -7.504     C 193.598   .888, 187.983   0,     181.646   0     z     m 22.347 19.677     h 21.01     c  7.781 0,     13.506  1.612,  17.175  4.836        3.78  3.224,  5.67   7.56,    5.67  13.008        0     5.67,  -1.833 10.06,   -5.502 13.174       -3.669 3.112, -8.338  4.668, -14.008  4.668     h -24.345     z   "
     id="path6"
     style="fill:#770000;fill-opacity:1" />
  <path
     fill="#6c0000"
     d="     M 238.061 .01     v 118.727     h 22.343     V 69.714     h 2.615     v -.032     h 39.945     v -20.68     l -42.56 .032     V 20.69     h 56.009     V .01     z   "
     id="path7"
     style="fill:#770000;fill-opacity:1" />
  <path
     fill="#6c0000"
     d="     M 329.815 .012     v 118.727     h 78.32     v -20.68     h -55.978     V 20.692     h 55.979     V .012     M 334.559 49.022     V 69.72     h 20.21     v -.032     h 39.921     V 49.015     z   "
     id="path8"
     style="fill:#770000;fill-opacity:1" />
  <path
     fill="#6c0000"
     d="     M 469.808 .005     a 59.362 59.362, 0, 0, 0, -59.362  59.362       59.362 59.362, 0, 0, 0,  59.362  59.362       59.362 59.362, 0, 0, 0,  59.362 -59.362     A 59.362 59.362, 0, 0, 0, 469.808    .005     z     m 0 21.514     a 37.855 37.855, 0, 0, 1,  37.855  37.855       37.855 37.855, 0, 0, 1, -37.855  37.855       37.855 37.855, 0, 0, 1, -37.855 -37.855       37.855 37.855, 0, 0, 1,  37.855 -37.855     z   "
     id="path9"
     style="fill:#770000;fill-opacity:1" />
  <rect
     style="opacity:0.99;fill:#99ddfe;fill-opacity:1;stroke-width:1.83685"
     id="rect64"
     width="0.42220694"
     height="0.0089831268"
     x="39.588638"
     y="50.655849" />
</svg>
